X: 12297
T: Fairy Queen, The
R: hornpipe
M: 4/4
K: Dmajor
|:ec|d2 dc dBAG|FDFA dAFA|GABG E2 ef|gece dcBA|
d2 dc dBAG|FDFA dAFA|GABG E2 ef|gece d2-:|
|:dA|dfaf gecA|da^ga baga|fdAF G2 ef|gece gecA|
dfef gfga|ba^ga baga|fdAF E2 ef|gece d2-:|

